X:1
T:Salisbury, LM
T:Salisbury, LM
T:Thomas Ravenscroft, Psalmes, 1621
T:Public Domain Courtesy of the Cyber Hymnal™
C:Thomas Ravenscroft, Psalmes, 1621
Z:Public Domain
Z:Courtesy of the Cyber Hymnal™
%%score 1 ( 2 3 )
L:1/8
Q:1/4=105
M:none
K:Bb
V:1 treble 
V:2 bass 
V:3 bass 
V:1
 [DG]2 | [DA]2 [DA]2 [DB]2 [EG]2 | [EG]2 [D^F]2 [DG]2 [DB]2 | [Fc]2 [Fd]2 [Ge]2 [^Fd]2 | %4
 [Gd]2 [Gc]2 [^Fd]2 [=Fd]2 | [Ff]2 [Fd]2 [Fc]2 [FB]2 | [GB]2 [FA]2 [DB]2 [FB]2 | %7
 [FA]2 [FB]2 [Ec]2 [DB]2 | [DA]2 [DA]2 [B,G]2 |] %9
V:2
 [G,B,]2 | [^F,A,]2 [D,F,]2 G,2 [E,B,]2 | [C,C]2 [D,A,]2 [G,,B,]2 G,2 | %3
 [F,A,]2 [D,A,]2 [C,C]2 [D,A,]2 | [E,G,]2 [E,G,]2 [D,A,]2 [B,,B,]2 | %5
 [A,,C]2 [B,,B,]2 [F,A,]2 [D,D]2 | [E,C]2 [F,C]2 [B,,B,]2 [B,,D]2 | %7
 [F,C]2 [D,B,]2 [C,G,]2 [G,,G,]2 | [D,G,]2 [D,^F,]2 [G,,G,]2 |] %9
V:3
 x2 | x4 G,2 x2 | x6 G,2 | x8 | x8 | x8 | x8 | x8 | x6 |] %9

